!!!COM: Palestrina, Giovanni Perluigi da
!!!OPR: O Regem coeli
!!!OTL: Kyrie
**kern	**kern	**kern	**kern
*Ibass	*Itenor	*Icalto	*Icant
!Bassus	!Tenor	!Altus	!Cantus
*clefF4	*clefGv2	*clefG2	*clefG2
*k[b-]	*k[b-]	*k[b-]	*k[b-]
*G:dor	*G:dor	*G:dor	*G:dor
*M4/2	*M4/2	*M4/2	*M4/2
=1	=1	=1	=1
1A	0r	0r	0r
[1G	.	.	.
=2	=2	=2	=2
2G]	1r	0r	0r
2F	.	.	.
1B-	1d	.	.
=3	=3	=3	=3
1A	1.c	0r	0r
2r	.	.	.
2G	2B-	.	.
=4	=4	=4	=4
2G	1e-	0r	0r
2A	.	.	.
2.B-	1d	.	.
4A	.	.	.
=5	=5	=5	=5
4G	2r	0r	0r
4F	.	.	.
2.G	2d	.	.
.	2d	.	.
4F	.	.	.
2E	2e	.	.
=6	=6	=6	=6
2D	2.f	1a	0r
2d	.	.	.
.	4e	.	.
2B-	2d	[1g	.
2c	2e	.	.
=7	=7	=7	=7
1A	1c	2g]	1r
.	.	2f	.
1G	2r	1b-	1dd
.	2g	.	.
=8	=8	=8	=8
2A	2e	1a	1.cc
2F	2f	.	.
1G	1d	2r	.
.	.	2g	2b-
=9	=9	=9	=9
1C	1c	2g	1ee-
.	.	2a	.
2r	1G	2.b-	1dd
2G	.	.	.
.	.	4a	.
=10	=10	=10	=10
2G	0r	4g	2r
.	.	4f	.
2G	.	2.g	2dd
2B-	.	.	2dd
.	.	4f	.
2c	.	2e	2ee
=11	=11	=11	=11
0d	1r	2d	2.ff
.	.	2.f	.
.	.	.	4ee
.	2r	.	4dd
.	.	4e	4cc
.	2d	4d	[2dd
.	.	4c	.
=12	=12	=12	=12
0r	2d	2B-	2dd]
.	2e	2c	4cc
.	.	.	4b-
.	2.f	2.d	2.a
.	4e	4e	4g
=13	=13	=13	=13
0r	4d	4f	2a
.	4c	4g	.
.	2.d	2.f	2b-
.	.	.	2a
.	4c	4e	.
.	2B-	4f	[2dd
.	.	4d	.
=14	=14	=14	=14
1r	1A	1e	2dd]
.	.	.	2cc#
2r	1d	2f	2dd
2G	.	[2g	2b-
=15	=15	=15	=15
2G	0r	2g]	2b-
2A	.	4f	2cc
.	.	4e	.
2.B-	.	1d	2.dd
4A	.	.	4cc
=16	=16	=16	=16
4G	2r	2r	4b-
4F	.	.	4a
2.G	2B-	2d	2b-
.	2B-	2d	1g
4F	.	.	.
2E	2c	2e	.
=17	=17	=17	=17
1D	2.d	2.f	1r
.	4c	4e	.
2r	4B-	4d	1dd
.	4A	4c	.
2BB-	[2B-	[2d	.
=18	=18	=18	=18
2BB-	2B-]	2d]	2dd
2C	4A	4c	2ee
.	4G	4B-	.
1D	1F	1A	2.ff
.	.	.	4ee
=19	=19	=19	=19
2r	2r	1.B-	4dd
.	.	.	4cc
2BB-	2d	.	1dd
2BB-	2d	.	.
2C	2e	4A	4cc
.	.	4G	4b-
=20	=20	=20	=20
2.D	2.f	2F	2.a
.	.	2.f	.
4E	4e	.	4g
2F	4d	.	2a
.	4c	4e	.
[2G	4B-	4d	[2b-
.	4A	4c	.
=21	=21	=21	=21
2G]	2B-	2d	4b-]
.	.	.	4a
2C	2c	2e-	1g
1D	1A	2.d	.
.	.	.	2f#
.	.	4c	.
=22	=22	=22	=22
2r	1G	4B-	2g
.	.	4G	.
2G	.	1g	2b-
2G	1r	.	2b-
2A	.	4f	2cc
.	.	4e	.
=23	=23	=23	=23
2.B-	1r	1d	2.dd
4A	.	.	4cc
4G	2r	2r	4b-
4F	.	.	4a
[2G	2B-	2d	2b-
=24	=24	=24	=24
4G]	2B-	2d	1g
4F	.	.	.
2E	2c	2e	.
1D	2.d	2.f	1r
.	4c	4e	.
=25	=25	=25	=25
2r	4B-	4d	1dd
.	4A	4c	.
2BB-	1B-	1d	.
2BB-	.	.	2dd
2C	4A	4c	2ee
.	4G	4B-	.
=26	=26	=26	=26
1D	1F	1A	2.ff
.	.	.	4ee
2r	2r	[1B-	4dd
.	.	.	4cc
2BB-	2d	.	[2dd
=27	=27	=27	=27
2BB-	2d	2B-]	2dd]
2C	2e	4A	4cc
.	.	4G	4b-
2.D	2.f	2F	2.a
.	.	[2f	.
4E	4e	.	4g
=28	=28	=28	=28
2F	4d	4f]	2a
.	4c	4e	.
1G	4B-	4d	2.b-
.	4A	4c	.
.	2B-	2d	.
.	.	.	4a
2C	2c	2e-	[2g
=29	=29	=29	=29
1D	1A	1d	2g]
.	.	.	2f#
1G	1G	1d	1g
=30	=30	=30	=30
1.d	0r	0r	0r
2c#	.	.	.
=31	=31	=31	=31
2.d	0r	1r	0r
4c	.	.	.
2B-	.	[1g	.
2c	.	.	.
=32	=32	=32	=32
1A	0r	2g]	0r
.	.	2f#	.
2G	.	2.g	.
[2c	.	.	.
.	.	4f	.
=33	=33	=33	=33
2c]	0r	2e	1r
4B-	.	2f	.
4A	.	.	.
1B-	.	1d	[1dd
=34	=34	=34	=34
1A	0r	1e	2dd]
.	.	.	2cc#
2.B-	.	2d	2.dd
.	.	[2g	.
4A	.	.	4cc
=35	=35	=35	=35
2G	1r	2g]	2b-
2A	.	4f	2cc
.	.	4e	.
4D	[1d	1f	[1a
4E	.	.	.
4F	.	.	.
4G	.	.	.
=36	=36	=36	=36
1A	2d]	1e	2a]
.	2c#	.	2ee
1D	2.d	1d	2ff
.	.	.	[2dd
.	4c	.	.
=37	=37	=37	=37
1r	2B-	2r	2dd]
.	2c	1g	2ee
2r	1A	.	2.cc
[2c	.	2f#	.
.	.	.	4dd
=38	=38	=38	=38
2c]	1G	2.g	2ee
2B	.	.	2.dd
.	.	4f	.
2c	1r	2e	.
.	.	.	4cc
2F	.	2f	[2cc
=39	=39	=39	=39
1G	2r	1d	2cc]
.	1g	.	2b
1A	.	2r	1cc
.	2f#	[2c	.
=40	=40	=40	=40
1G	2.g	2c]	0r
.	.	2B	.
.	4f	.	.
2.A	2e	2.c	.
.	2f	.	.
4G	.	4B-	.
=41	=41	=41	=41
2F	1d	2A	2r
2G	.	2B-	1dd
1E	2r	1G	.
.	[2g	.	2cc#
=42	=42	=42	=42
1D	2g]	2r	2.dd
.	2f#	2d	.
.	.	.	4cc
1r	2.g	2e-	2b-
.	.	[2c	2cc
.	4f	.	.
=43	=43	=43	=43
1r	2e	2c]	1a
.	2f	2d	.
2r	2.d	1G	1b-
[2d	.	.	.
.	4e	.	.
=44	=44	=44	=44
2d]	2f	0r	0a
2c#	2e	.	.
2.d	1f	.	.
4c	.	.	.
=45	=45	=45	=45
2B-	2d	2r	1g
2c	2e	1g	.
1A	1c	.	2r
.	.	2f#	[2cc
=46	=46	=46	=46
1G	1d	2.g	2cc]
.	.	.	2b
.	.	4f	.
2.A	1r	2e	2.cc
.	.	[2f	.
4G	.	.	4b-
=47	=47	=47	=47
2F	1r	4f]	2a
.	.	4e	.
2G	.	1d	2b-
1E	2r	.	2.g
.	[2g	2c#	.
.	.	.	4a
=48	=48	=48	=48
1D	2g]	0d	2b-
.	2f#	.	2a
1G	2.g	.	1b-
.	4f	.	.
=49	=49	=49	=49
1A	2e	2r	1a
.	2f	1a	.
1B-	1d	.	2r
.	.	2g	[2dd
=50	=50	=50	=50
1A	1e	2.a	2dd]
.	.	.	2cc#
.	.	4g	.
1r	1r	2f	2.dd
.	.	[2g	.
.	.	.	4cc
=51	=51	=51	=51
0r	2r	2g]	2b-
.	1g	2c	2cc
.	.	2.d	1a
.	2f#	.	.
.	.	4c	.
=52	=52	=52	=52
2r	2.g	2B-	[0g
1c	.	2c	.
.	4f	.	.
.	2e	1G	.
2B	2d	.	.
=53	=53	=53	=53
2.c	1e	2r	1g]
.	.	2g	.
4B-	.	.	.
2A	2f	2a	1r
2B-	2d	2f	.
=54	=54	=54	=54
1G	2.g	1b-	2r
.	.	.	1dd
.	4f	.	.
2.A	1e	1a	.
.	.	.	2cc#
4G	.	.	.
=55	=55	=55	=55
2F	0d	2r	2.dd
2G	.	1g	.
.	.	.	4cc
1D	.	.	2b-
.	.	2f#	2a
=56	=56	=56	=56
0G	0d	2g	2b-
.	.	2.b-	2g
.	.	.	1b-
.	.	4a	.
.	.	[2g	.
=57	=57	=57	=57
0D	0d	2g]	0a
.	.	4f	.
.	.	4e	.
.	.	1f#	.
=58	=58	=58	=58
0r	0r	1r	1.dd
.	.	[1g	.
.	.	.	2g
=59	=59	=59	=59
0r	0r	2g]	4dd
.	.	.	4ee
.	.	2d	4ff
.	.	.	4dd
.	.	2g	2ee
.	.	2a	[2ff
=60	=60	=60	=60
1r	0r	2.b-	4ff]
.	.	.	4ee
.	.	.	4dd
.	.	4a	4cc
[1G	.	4g	2.b-
.	.	4f	.
.	.	2g	.
.	.	.	4a
=61	=61	=61	=61
2G]	0r	2d	4b-
.	.	.	4cc
2D	.	2f	1dd
2G	.	1e	.
2A	.	.	2cc#
=62	=62	=62	=62
2.B-	1r	2d	2.dd
.	.	2f	.
4A	.	.	4cc
2G	[1d	2g	2b-
2F	.	[2a	2a
=63	=63	=63	=63
1G	2d]	4a]	1b-
.	.	4g	.
.	2G	2g	.
1D	4d	4f	1a
.	4e	4g	.
.	4f	4a	.
.	4d	4f	.
=64	=64	=64	=64
0r	2e	2g	1r
.	2.f	2a	.
.	.	[1d	[1dd
.	4e	.	.
.	4d	.	.
.	4c	.	.
=65	=65	=65	=65
1.G	2.B-	1d]	2dd]
.	.	.	2g
.	4c	.	.
.	2d	1r	2b-
2C	[2e-	.	[2cc
=66	=66	=66	=66
2.G	4e-]	1r	2cc]
.	4d	.	.
.	1d	.	2b-
4F	.	.	.
2E-	.	2r	2.g
2E-	2c	[2g	.
.	.	.	4a
=67	=67	=67	=67
1D	0d	2g]	2b-
.	.	4f	2.a
.	.	4e	.
2r	.	2f	.
.	.	.	4g
[2d	.	2d	4f
.	.	.	4e
=68	=68	=68	=68
2d]	0r	2f	2d
2G	.	2g	1dd
2.d	.	1a	.
.	.	.	[2ff
4c	.	.	.
=69	=69	=69	=69
2B-	0r	1d	4ff]
.	.	.	4ee
2B-	.	.	1dd
1A	.	1e	.
.	.	.	2cc
=70	=70	=70	=70
1D	2r	2f	2b-
.	1d	1a	2a
1r	.	.	2.b-
.	2G	[2g	.
.	.	.	8a
.	.	.	8g
=71	=71	=71	=71
1r	2.d	2g]	2b-
.	.	2f	1a
.	4c	.	.
2r	2B-	1d	.
[2d	2B-	.	2g
=72	=72	=72	=72
2d]	2A	1e	1a
2c#	1a	.	.
2.d	.	1d	2r
.	2d	.	[2dd
4c	.	.	.
=73	=73	=73	=73
2B-	2f	0r	2dd]
2c	2e	.	2g
2.B-	2d	.	2.dd
.	[2f	.	.
4A	.	.	4cc
=74	=74	=74	=74
1G	2f]	1r	2b-
.	2e	.	2b-
1F	1f	2r	2.a
.	.	[2a	.
.	.	.	4b-
=75	=75	=75	=75
0r	1r	2a]	2cc
.	.	2d	2dd
.	2r	2.a	2cc
.	[2d	.	[2ff
.	.	4g	.
=76	=76	=76	=76
2r	2d]	2f	4ff]
.	.	.	4ee
1G	2G	2.g	4dd
.	.	.	4cc
.	2B-	.	2dd
.	.	4f	.
2C	2c	[2e-	[2cc
=77	=77	=77	=77
2.G	1d	2e-]	2cc]
.	.	2.d	2.b-
4F	.	.	.
2E-	1G	.	.
.	.	8c	4a
.	.	8B-	.
2E-	.	2c	[2g
=78	=78	=78	=78
1D	1A	1.d	2g]
.	.	.	2f
1G	2G	.	2.b-
.	[2d	2G	.
.	.	.	4cc
=79	=79	=79	=79
2r	2d]	2.B-	1dd
1d	2G	.	.
.	.	4c	.
.	2.B-	1d	2r
2G	.	.	[2dd
.	4c	.	.
=80	=80	=80	=80
2B-	2d	0r	2dd]
2c	2e-	.	2g
2.B-	2d	.	2.dd
.	[2f	.	.
4A	.	.	4cc
=81	=81	=81	=81
1G	2f]	1r	2b-
.	2e	.	2b-
1F	1f	2r	2.a
.	.	[2a	.
.	.	.	4b-
=82	=82	=82	=82
0r	1r	2a]	2cc
.	.	2d	2dd
.	2r	2.a	2cc
.	[2d	.	[2ff
.	.	4g	.
=83	=83	=83	=83
2r	2d]	2f	4ff]
.	.	.	4ee
1G	2G	2.g	4dd
.	.	.	4cc
.	2B-	.	2dd
.	.	4f	.
2C	2c	[2e-	[2cc
=84	=84	=84	=84
2.G	1d	2e-]	2cc]
.	.	2.d	2.b-
4F	.	.	.
1E-	1G	.	.
.	.	8c	4a
.	.	8B-	.
.	.	2c	[2g
=85	=85	=85	=85
1D	1A	1d	2g]
.	.	.	2f#
[1G	[1G	[1d	[1g
=86	=86	=86	=86
1G_	1G_	1d_	1g_
1G_	1G_	1d_	1g_
=87	=87	=87	=87
1G]	1G]	1d]	1g]
==	==	==	==
*-	*-	*-	*-
!!!CDT: 1525/^1526/-1594/2/2
!!!OCY: Italia
!!!AGN: Mass (Parody)
!!!AST: renaissance, vocal
!!!ASW: Motet 1532 (Silva)
!!!PWK: Masses, Book I
!!!RNB: Cadence finals: D
!!!YOR: Le Opere Complete, v. 1, p. 35
!!!YOO: Rome, Italy: Fratelli Scalera
!!!END: 1992//
!!!EED: John Miller
!!!YEC: Copyright 2000, John Miller
!!!YEN: United States of America
!!!YEM: Rights to all derivative electronic formats reserved.
!!!YEM: Refer to licensing agreement for further details.
!!!YEM: This file must be accompanied by the licensing agreement.
!!!YEM: A copy of the licensing agreement may be found at http://www.music-cog.ohio-state.edu/HumdrumDatabases/Palestrina/license.txt
!!!EMD: converted to Humdrum by Bret Aarden
